**kern	**kern	**dynam
*part1	*part1	*part1
*staff2	*staff1	*
*I"Piano	*	*
*clefF4	*clefG2	*
*k[]	*k[]	*
=1	=1	=1
*^	*^	*
2.CC_ 2.C_	8ccc>)	(2.cc]	2.c_ 2.e_ 2.g_	.
.	8re	.	.	.
.	8re	.	.	.
.	4re	.	.	.
.	8re	.	.	.
*v	*v	*	*	*
=	=	=	=
2.CC] 2.C]	4.cc	2.c] 2.e] 2.g]	.
!	!LO:TX:b:i:t=dim.	!	!
.	4.b)	.	.
=	=	=	=
[2.C [2.F [2.A	(4.a	[2.f	.
.	4.ff	.	.
=	=	=	=
2.C] 2.F] 2.A]	[4.ee	2.f]	.
.	4ee]	.	.
.	8dd)	.	.
=	=	=	=
[2.G [2.d	([2.cc	[2.f	p
*	*v	*v	*
=||	=||	=||
*M4/4	*M4/4	*
*	*^	*
2G] 2d]	4cc]	2.f]	.
.	4b	.	???
2r	4.ee	.	.
.	.	4r	.
.	8dd)	.	.
=	=	=	=
2r	2r	1cc	.
*clefG2	*	*	*
[2c' 2e 2g	(2ee' 2gg 2ccc	.	pp
*	*v	*v	*
=	=	=
1c'] 1e 1g	1cc') 1ee 1gg 1ccc	.
==	==	==
*-	*-	*-
!!!system-decoration: {(s1,s2)}
!!!RDF**kern: > = above
